X: 180
T:Good Morning to Your Nightcap
%T:Good Morning, Nightcap
T:Shifting Gravel
T:Michael Coleman's
R:reel
S:David Lyth
D:Matt Molloy: Heathery Breeze
D:Four Men and a Dog: Shifting Gravel
D:Kevin Burke: If the Cap Fits
D:Lunasa: The merry sisters of fate
Z:id:hn-reel-161
M:C|
K:Ador
e3c d3B|cBcd (3efe d2|e2ec d2dB|cABG EGD2|
e3c d3B|cBcd (3efe d2|(3efg fa gedB|cABG EGD2:|
|:EAAc BGGB|cBcd (3efe d2|eA~A2 BG~G2|BGAG EGD2|
EAAc BGGB|cBcd (3efe d2|(3efg fa gedB|cABG EGD2:|
